X:167
T:B167-  Great York has been debarred of late
Q:1/4=120
L:1/4
M:3/4
K:C
c|B2A|B2c|A2B|c2d|ef/2e/2 d/2c/2|d2e|cB2|A3|\
^c2c|d2e|fe2|f3|d2f|eA2|d2c|B3|\
g2e|c2e|fd2|c2|]
